X:99
T:Captain Kidd's Bridge
C:Composer 2006 David Kidd
N:Exhausted by repetition in studying the Captain Kidd tune I wrote this as a bridge on 8/20/06
Q:1/4=193
M:4/4
L:1/8
K:Am
z2 A2 B2 c2 |d2 c2 d2 c2 |d2 f6 |c2 c2 B2 B2 |
w:Are there a thousand pounds of treasure buried in the
w:Hidden lost and waiting for some lucky
A8 |[1d2 c2 d2 c2 |d4 e4 |c8 :|[2
w:sand on some tropic island shore?
w:hand -- or
B2 B2 B2 B2 |
w:could there be ten
B2 d2 c2 B2 |A8 |]
w:thousand dollars more?
